!!!OTL: Molihua(1)
!!!ARE: Asia, China,ÿLiaoning, Haicheng
!! III, 275
!!!SCT: C1558
!!!YEM: Copyright 1995, estate of Helmut Schaffrath.
**kern
*ICvox
*Ivox
*M2/4
*k[f#c#g#]
*A:
{8.ff#
16ff#
8ff#
8ff#
=1
4aa
8cc#
8ee
=2
8ff#
4ff#
8ee
=3
2ff#}
=4
{8.bb
16aa
8bb
8ccc#
=5
8ccc#
8bb
4aa
=6
8.bb
16aa
8bb
8bb
=7
4eee
8gg#
8ff#
=8
8ee
4ee
8ff#
=9
2ee}
=10
{4ff#
8.bb
16ccc#
=11
4aa
4aa
=12
4ff#
8bb
8ccc#
=13
4aa
4aa}
=14
{4ff#
4ff#
=15
8.aa
16ff#
8ff#
8cc#
=16
8ee
4ee
8ff#
=17
2ee}
=18
{8.ff#
16ff#
8cc#
8aa
=19
4ff#
4ff#
=20
4.ee
8ff#
=21
4aa
4aa
=22
4bb
4bb}
=23
{8.ff#
16aa
8ff#
8ee
=24
8cc#
8b
4cc#
=25
4aa
8ff#
8ee
=26
8ff#
8cc#
4ee}
=27
{4ff#
4ee
=28
4ff#
4ee
=29
8.b
16cc#
4ee
=30
8b
8cc#
4ee
=31
8cc#
8ff#
8ff#
8cc#
=32
8b
4b
8a
=33
2b}
==
!!!AGN: Xiaodiao, Shidiao, Molihua diao
!!!AMT: simple duple
!!!AIN: vox
!!!EED: Helmut Schaffrath
!!!EEV: 1.0
*-
